X:30
T:Mu i denn...
B:Frau Nachtigall (Straburg - 1928)
Z:<anamnese@laposte.net> -- http://anamnese.fr.st
N:p.94
M:2/4
L:1/8
Q:1/4=110
K:D
D/ E/ | "D"F F/ A/ "G"G (G/ B) | "D"A A/ G/ F2 |
"D"A A/ G/ F (F/ A/) | "A"G G E A | "D"F2 z :| 
D/ F/ | "A"E>F G E | "D"F>G A A/ A/ | "G"B B d c/B/ |
"D"A2 z D/ F/ | "D"A A/ B/ A A/ d/ | "D"A A/ G/ F2 | 
"D"A A/ G/ F F/ A/ | "A"G G E A | "D"F2 z |]
